public/images/fifthHomeBg2.svg

<svg width="393" height="294" fill="none" xmlns="http://www.w3.org/2000/svg"><path d="m-7 292 85.813-22.859 23.612-19.222 30.524 5.195 12.095-56.627 61.623-15.067 39.163-19.741 29.849-59.874 44.445 28.703 62.2-84.163L416 2" stroke="#F0F0F0" stroke-width="4.126"/></svg>

<svg width="393" height="294" viewBox="0 0 393 294" fill="none" xmlns="http://www.w3.org/2000/svg">
<path d="M-7 292L78.8125 269.141L102.425 249.919L132.949 255.114L145.044 198.487L206.667 183.42L245.83 163.679L275.679 103.805L320.124 132.508L382.324 48.3455L416 2" stroke="#F0F0F0" stroke-width="4.12561"/>
</svg>
